X: 305609
M: 2/4
L: 1/16
K: D
(AG) |\
d2B2 AdBG | F2E2D2 :: (af) |\
f2a2d2f2 | aggg a2gf |
g2b2e2g2 | c'aga b2ag |\
f2a2d2f2 |[1 agfg a2fd |\
[2 d3e f2e2 | d2B2 AdBG | F2E2D2 |]


